X:1
T:Jeune gallant (PdM)
T:Jeune gallant (PdM)
T:Pierre de Manchicourt
C:Pierre de Manchicourt
%%score [ 1 2 [ 3 4 ] ]
L:1/8
Q:1/4=78
M:2/2
K:F
V:1 treble nm="Superius" snm="S"
V:2 treble nm="Altus" snm="A"
V:3 treble-8 nm="Tenor 1" snm="T 1"
V:4 treble-8 nm="Tenor 2" snm="T 2"
V:1
 z4 A4 | c3 d e2 d2- | d2 c2 d2 f2 | f2 d2 e2 f2 | e2 d4 cB | c4 z4 | z2 A2 G2 c2 | FD d4 c2 | %8
w: Jeu-|* ne gal- lant,|_ qui d'en- nui-|eulx ef- * *||fort,|os- ter me|_ _ _ _|
 d4 c2 c2 | B2 G2 A4 | z2 c2 f2 e2 | c2 e4 d2 | cd ec d2 e2- | ed d4 c2 | d4 z2 A2 | c3 d e2 d2- | %16
w: veulx, os- ter|me _ veulx|de mon a-|my, de mon|a- * * * * *|* * my tant|chier, à|ton cau- ser et|
 d2 c2 d2 f2 | f2 d2 e2 f2 | e2 d4 cB | c4 z4 | z2 A2 G2 c2 | FD d4 c2 | d4 c2 c2 | B2 G2 A4 | %24
w: _ des- pi- teulx|rap- * * *||port,|con- train- te|suis, _ _ _|_ _ con-|train- te suis|
 z2 c2 f2 e2 | c2 e4 d2 | cd ec d2 e2- | ed d4 c2 | d4 z4 | z2 f2 c2 d2 | A2 d2 c2 f2 | %31
w: à haul- te|voix cri- *|||er,|ha, maul- dict|sois qui le blas-|
 e2 d2 c2 d2- | d2 cB A2 c2 | A2 B2 G4 | F4 z4 | z2 f2 d2 e2 | c2 c2 c2 c2 | f3 e dc B2- | %38
w: mez _ _ _|_ si _ fort, in|ces- * sa-|ment,|in- ces- sa-|ment d'ung faulx co-|ra- * * * g'et|
 BG c4 B2 | A8 | z2 A2 A2 G2 | c4 A2 f2 | f2 d2 e2 fe | dc d2 c4 | z2 A2 d2 e2 |: f3 e dfed | %46
w: _ _ _ fi-|er,|mais plus le|blas- mez, luy|fai- sant grant _ _|_ _ _ tort,|plus oul- tre'ay-|mer je pre- * * *|
 c2 d4 c2 | d4 z G d2 | e2 f3 e df | e2 d2 c2 d2- | d2 c2 B4 | A2 e2 f2 e2 | dcde f4 | e2 d4 c2 |1 %54
w: tens sans dan-|gier, plus oul-|tre'ay- mer je pre- *|* * tens sans|_ _ dan-|gier, plus oul- tre'ay-|mer _ je pre- tens|sans dan _|
 d2 A2 d2 e2 :|2 e2 d4 c2 || d8 |] %57
w: gier, plus oul- tre'ay-|sans dan- *|gier.|
V:2
 D4 F3 G | AB A3 F G2 | A2 A2 A2 F2 | B4 A4 | B8 | A2 A2 B2 G2 | A2 GF E2 z E | D2 G2 E2 A2 | %8
w: Jeu- * *|* * * ne gal-|lant, qui d'en- nui-|eulx ef-||fort, os- ter me|veulx, _ _ _ os-|ter me veulx, os-|
 A2 B2 A2 GF | G4 z2 F2 | G2 A3 B c2 | z2 G2 c2 B2 | G4 A2 c2- | cB AG A4 | z2 D2 F3 G | AB A4 G2 | %16
w: ter me veulx _ _|_ de|mon a- * my,|de mon a-|my tant _|_ _ _ _ chier,|à ton _|_ _ _ cau-|
 A2 A2 A2 F2 | B4 A4 | B8 | A2 A2 B2 G2 | A2 GF E2 z E | D2 G2 E2 A2 | A2 B2 A2 GF | G4 z2 F2 | %24
w: ser et des- pi-|teulx rap-||port, con- train- te|suis, _ _ _ con-|train- te suis, con-|train- te suis _ _|_ à|
 G2 A2 AB c2 | z2 G2 c2 B2 | G4 A2 c2- | c2 B2 A4 | z2 A2 G2 B2 | A8 | z2 A2 A2 c2- | c2 B2 A2 F2 | %32
w: haul- te voix cri- er,|à haul- te|voix _ _|_ cri- er,|ha, maul- dict|sois|qui le blas-|* mez _ si|
 G4 C2 F2- | F2 D2 E3 D | C2 D4 CB, | C2 A2 B2 G2 | A8 | z2 F2 F2 F2 | B2 A2 G3 F | E2 E2 E3 C | %40
w: fort, in- ces-|* sa- ment, _|_ in- ces- *|* * * sa-|ment|d'ung faulx co-|ra- g'et fi- *|* er, mais plus|
 E2 F4 ED | E2 A2 A4 | F2 B3 A A2- | A2 G2 A4 | z4 D2 G2 |: A2 B3 A GB | A2 F2 B2 A2 | F4 z4 | %48
w: le blas- * *|mez, luy fai-|sant grant- * *|* * tort,|plus oul-|tre'ay- mer je pre- *|* tens sans dan-|gier,|
 z2 A,2 D4 | E2 F3 E DF | E2 A4 G2 | A6 A2 | B6 c2- | c2 B2 A4 |1 z4 E2 G2 :|2 c2 B2 A4 || F8 |] %57
w: plus oul-|tre'ay- mer je pre- *||* tens|sans dan-|* * gier|plus oul-|(dan) _ _|gier.|
V:3
 z8 | z4 z2 d2 | f2 e2 d4 | z2 g2 g2 f2 | g3 d f2 g2 | e2 c2 d2 e2 | c8 | z4 z2 e2 | d2 g2 cd ec | %9
w: |Jeu-|ne gal- lant,|qui d'en- nui-|eulx _ _ ef-|fort, os- ter me|veulx,|os-|ter me veulx _ _ _|
w: |||||||||
 d2 e2 f3 e | d2 e2 z2 c2 | f2 e2 c2 f2- | f2 e2 d2 g2- | g2 f2 e4 | d8 | z4 z2 d2 | f2 e2 d4 | %17
w: _ _ _ _|* * de|mon a- my tant|_ _ _ _||chier,|à|ton cau- ser|
w: ||||||||
 z2 g2 g2 f2 | g3 d f2 g2 | e2 c2 d2 e2 | c8 | z4 z2 e2 | d2 g2 cd ec | d2 e2 f3 e | d2 e2 z2 c2 | %25
w: et des- pi-|teulx _ _ rap-|port, con- train- te|suis,|con-|train- te suis _ _ _|_ _ _ _|* * à|
w: ||||||||
 f2 e2 c2 f2- | f2 e2 d2 g2- | g2 f2 e4 | d4 z2 f2 | c2 d2 A2 d2 | c2 f2 e2 a2 | g3 f ec f2- | %32
w: haul- te voix _|_ _ _ _|* * cri-|er, ha,|maul- dict sois qui|le blas- mez _|_ _ _ _ _|
w: |||||||
 f2 e2 f2 c2 | d2 B2 c4 | F2 f4 e2 | f4 z2 c2 | c2 c2 f3 e | d2 c2 d4 | e2 f2 e2 d2- | %39
w: * si fort, in|ces- sa- ment,|in ces- sa-|ment, d'un|faulx co- ra- *|* g'et fi-||
w: |||||||
"^-natural" d2 cB c4- | c4 z2 d2 | d2 c2 f4 | d4 z2 f2 | f2 d2 e2 f2- | fe dc BA G2 |: d4 z4 | %46
w: * * * er|_ mais|plus le blas-|mez, luy|fai- sant grant _|_ _ _ _ _ _ _|1.)tort|
w: ||||||2.)gier|
 A2 d2 e2 f2- | fe df e2 d2 | cA a4 f2 | g2 d2 a4- | a4 z4 | z2 A2 d2 e2 | f3 e d2 a2 | %53
w: plus oul- tre'ay- *|* * * * mer je|pre- * * tens|sans dan- gier,|_|plus oul- tre'ay-|mer je pre- tens|
w: |||||||
 g2 f2 e2 f2- |1 fe dc BA G2 :|2 g2 f2 e4 || d8 |] %57
w: sans _ _ dan-||sans dan- *|gier|
w: ||||
V:4
 z8 | A4 c2 B2 | A4 z2 d2 | d2 B2 c2 d2 | GA Bc d2 G2 | A2 A2 G2 c2 | FG AB c2 A2 | B2 G2 A4 | %8
w: |Jeu- ne gal-|lant, qui|d'en- nui- eulx ef-|fort _ _ _ _ os-|ter me veulx, os-|ter _ _ _ _ me|_ _ veulx,|
w: ||||||||
"^#" z4 A4 | G2 c2 F2 F2 | B2 A2 F2 A2- | AB c2 A2 B2 | c2 z c f2 e2 | c2 d2 A4 | D8 | %15
w: os-|ter me veulx de|mon a- my tant|_ _ _ _ _|chier, de mon a-|* my tant|chier,|
w: |||||||
 z2 A2 c2 B2 | A4 z2 d2 | d2 B2 c2 d2 | GA Bc d2 G2 | A2 A2 G2 c2 | FG AB c2 A2 | B2 G2 A4 | %22
w: à ton cau-|ser et|des- pi- teulx rap-|port, _ _ _ _ con-|train- te suis, con|train- * * * * *|* te suis,|
w: |||||||
"^#" z4 A4 | G2 c2 F2 F2 | B2 A2 F2 A2- | AB c2 A2 B2 | c2 z c f2 e2 | c2 d2 A4 | z2 f2 c2 d2 | %29
w: con-|train- te suis à|haul- te voix cri|_ _ _ _ _|er, à haul- te|voix cri- er,|ha, maul- dict|
w: |||||||
 A2 D2 F2 D2 | F3 G A2 F2 | c2 G2 A2 B2 | G4 F4 | z4 z2 c2 | A2 B2 G4 | F2 F2 B2 c2 | F4 z2 F2 | %37
w: sois,- maul- dict sois|qui _ _ le-|blas- mez _ _|si fort,|in-|ces- sa- ment,|in- ces- * sa-|ment d'ung|
w: ||||||||
 F2 F2 B3 A | G2 F2 G4 | A4 z2 A2 | A2 F2 B4 | A4 D2 d2 | d2 B2 c2 dc | BA B2 AG FE | %44
w: faulx co- ra- *|* g'et fi-|er, mais|plus le blas-|* mez, luy|fai- sant grant _ _|_ _ _ _ _ _ _|
w: |||||||
 D2 F2 G2 E2 |: D4 z4 | z2 D2 G2 A2 | B3 A G2 B2 | AG FE D2 d2 | c2 B2 A2 D2 |"^#" A2 z A d2 e2 | %51
w: |1.)tort|plus oul- tre'ay-|mer _ _ je|pre _ _ _ _ tens|sans dan- * *|gier, plus oul- tre'ay-|
w: |2.)gier||||||
 f2 e2 d2 c2 | B6 F2 | c2 d2 A4 |1 D2 F2 G2 E2 :|2 c2 d2 A4 || D8 |] %57
w: mer je pre- tens|sans dan-||gier, sans dan- *|(dan)- * *|gier.|
w: ||||||

